X: 1
T: Jimmy O' the Bu's Polka
C: James Sinclair of the Bu', Hoy
R: polka
Z: 2021 John Chambers <jc:trillian.mit.edu>
S: handout for online BSFC workshop with Jennifer Wrigley 2021-05-17
M: 2/4
L: 1/16
K: D
B2 |\
A2A2 A>FA>d | c2B2 B2e>d | c2c2 c2B>c | d>cd>e f>ed>B |
A2A2 A>FA>d | c2B2 B2e>d | c2c2 c2B>c | d2f2 d2 :|
|: B2 |\
A2f2 f>ed>c | B2g2 g3f | e2a2 ^g2a2 | b2a2 ^g2a2 |
A2f2 f>ed>c | B2g2 g2b2 | a3f g2e2 | d4- d2 |]
